Dominus_Dark_Funeral/scalable/apps/image-viewer.svg

<svg xmlns="http://www.w3.org/2000/svg" width="48" height="48" viewBox="0 0 12.7 12.7"><defs><linearGradient id="a" x1="1.24" x2="13.98" y1="290.83" y2="290.61" gradientUnits="userSpaceOnUse"><stop offset="0"/><stop stop-color="#060000" stop-opacity="0" offset="1"/></linearGradient></defs><path d="M6.35.09c-1.54 0-2.78.3-3.69.88A3.67 3.67 0 0 0 1 4.22c0 1.91 1.54 4.47 2.01 5.2.54.85 1.13 1.61 1.65 2.16.68.7 1.21 1.03 1.69 1.03s1.01-.33 1.69-1.03c.52-.55 1.11-1.31 1.65-2.16.47-.73 2-3.29 2-5.2 0-1.42-.57-2.55-1.65-3.25A6.75 6.75 0 0 0 6.35.1z" fill="#e3dbde"/><path d="M7.12 296.66c.24 0-.28.17 0 0s.58-.42.92-.77c.52-.55 1.11-1.32 1.65-2.16.23-.37.74-1.2 1.18-2.16.22-.49.43-1.01.58-1.53a4.61 4.61 0 0 0 .14-2.52 3.73 3.73 0 0 0-.84-1.64 3.65 3.65 0 0 0-1.45-.99c-.27-.1-.56-.2-.87-.28a9 9 0 0 0-2.08-.22c-.08 0-.13.02-.21.03l-.04.85v1.42l.25 3.79.15 2.16-.15 2.47z" fill="url(#a)" opacity=".4" transform="translate(0 -284.3)"/><path d="M6.35 6.62L4.49 5.37l1.4-1.45 2.28.15.76.95.08 1.49z" fill="#fbfdfd"/><path d="M6.35.09c-.23 0-.4.05-.62.07L5.72.2c0 .08-.02.21-.05.3-.02.08-.05.3-.06.5-.02.21-.07.47-.13.66-.06.16-.1.32-.09.36.04.08-.37.35-.43.29-.07-.07-.12-.06-.12 0s-.3.24-.42.24c-.04 0-.07.03-.07.05 0 .03-.04.04-.1.02-.08-.01-.12 0-.16.05-.03.08-.04.08-.12 0a.46.46 0 0 1-.12-.26c-.02-.1-.07-.26-.11-.36-.07-.15-.09-.16-.09-.07 0 .06.03.21.07.33.11.36 0 .61-.3.66-.13 0-.2 0-.4-.13-.46-.29-.47-.3-.57-.96-.04-.28-.1-.36-.15-.23-.03.08.05.77.11 1.08.06.25.2.56.29.59.03.02.09.1.12.2.02.08.09.21.14.27.04.07.09.22.1.33.02.12.07.36.13.54.07.18.1.41.1.57 0 .2.03.3.1.37.04.06.1.19.12.28.03.1.1.23.18.3.08.08.14.19.15.32.02.1.07.22.11.28.05.05.1.2.1.35.03.15.1.39.17.54.08.18.12.32.1.4-.02.08.01.13.12.22.19.16.24.15.2-.04-.04-.3.08-.38.2-.14.13.25.18.42.15.47-.01.03.02.18.07.35.05.16.1.45.11.65.04.59.14 1.37.24 1.85.03.11.07.4.09.6.01.15.04.22.06.3l.02.02c.12.07.22.06.34.1.08-.06.2-.12.21-.22a4.2 4.2 0 0 0-.08-.76 3.9 3.9 0 0 1-.08-.64 9.53 9.53 0 0 1-.2-1.69c0-.46.13-.63.33-.41.18.2.22.47.28 1.84.07 1.67.09 1.77.13 1.97.2-.02.39-.06.6-.2.1-.05.2-.17.3-.24v-.03c.03-.92.06-1.39.12-1.65l.06-.6c.02-.4.11-.7.22-.7.03 0 .07.05.08.12.04.25.02.9-.04 1.25-.04.2-.09.78-.12 1.27v.07c.1-.1.2-.14.3-.26.18-.18.37-.48.55-.7.05-.45.12-1.3.16-1.4.03-.08.05-.18.04-.21-.03-.07.08-.3.22-.46a.73.73 0 0 0 .13-.25c.05-.19.19-.31.33-.29.1.03.12 0 .15-.11l.02-.25c0-.06.06-.22.12-.35.06-.13.1-.25.08-.28-.01-.03 0-.11.05-.19a3 3 0 0 0 .16-.92c0-.1-.07-.33-.14-.53-.12-.34-.13-.4-.1-.72.01-.19.04-.37.07-.4.06-.08 0-.13-.07-.07-.1.1-.16.06-.28-.17-.1-.2-.12-.22-.22-.2a.22.22 0 0 1-.17-.01c-.04-.03-.08-.04-.1-.03-.03 0-.1-.06-.17-.16l-.2-.28a.95.95 0 0 1-.13-.27c-.03-.16-.08-.22-.28-.35C8.12 2.89 8 2.8 8 2.76c0-.07-.07-.08-.11-.01-.06.08-.12.04-.18-.12l-.07-.16-.07.15c-.07.12-.1.15-.2.14-.14 0-.43-.25-.43-.35 0-.04-.03-.11-.07-.16a.93.93 0 0 1-.07-.38c0-.17-.03-.3-.06-.34A4.02 4.02 0 0 1 6.6.2V.12c-.1 0-.16-.03-.25-.03zm.2 5a.25.23 0 0 1 .03 0 .25.23 0 0 1 .24.23.25.23 0 0 1-.24.23.25.23 0 0 1-.26-.23.25.23 0 0 1 .24-.22zm1.01.04v.01h.07c.03.03.14.2.25.4l.18.38-.13.12c-.13.12-.57.3-.62.25-.02-.01 0-.06.03-.1.13-.19.2-.4.2-.72l.02-.34zm-2.05.14c.03.01.03.06.03.13 0 .08.04.26.09.39.1.28.11.35.02.38a2.3 2.3 0 0 1-.83-.33c-.07-.08-.07-.08.02-.2.1-.12.26-.23.5-.32.1-.04.15-.06.17-.05z" fill="#1a1a1a"/><path d="M1.04 3.9c0 .1-.04.2-.04.32 0 1.91 1.54 4.47 2.01 5.2.54.85 1.13 1.61 1.65 2.16.68.7 1.21 1.03 1.69 1.03s1.01-.33 1.69-1.03c.52-.55 1.11-1.31 1.65-2.15.47-.74 2-3.3 2-5.2 0-.12-.02-.22-.03-.33-.02.42-.08.86-.21 1.3-.15.53-.36 1.05-.58 1.53-.44.98-.95 1.8-1.18 2.17-.54.84-1.13 1.6-1.65 2.15-.34.35-.64.61-.92.78-.28.17-.53.25-.77.25s-.5-.08-.77-.25a4.76 4.76 0 0 1-.92-.78A14.42 14.42 0 0 1 3.01 8.9c-.23-.37-.74-1.2-1.18-2.17-.22-.48-.43-1-.58-1.52-.13-.45-.19-.89-.21-1.31z" opacity=".5"/></svg>

<?xml version="1.0" encoding="UTF-8" standalone="no"?>
<svg
   xmlns:dc="http://purl.org/dc/elements/1.1/"
   xmlns:cc="http://creativecommons.org/ns#"
   xmlns:rdf="http://www.w3.org/1999/02/22-rdf-syntax-ns#"
   xmlns:svg="http://www.w3.org/2000/svg"
   xmlns="http://www.w3.org/2000/svg"
   xmlns:sodipodi="http://sodipodi.sourceforge.net/DTD/sodipodi-0.dtd"
   xmlns:inkscape="http://www.inkscape.org/namespaces/inkscape"
   width="48"
   height="48"
   viewBox="0 0 12.7 12.7"
   version="1.1"
   id="svg19"
   sodipodi:docname="image-viewer.svg"
   inkscape:version="0.92.4 (5da689c313, 2019-01-14)">
  <metadata
     id="metadata23">
    <rdf:RDF>
      <cc:Work
         rdf:about="">
        <dc:format>image/svg+xml</dc:format>
        <dc:type
           rdf:resource="http://purl.org/dc/dcmitype/StillImage" />
        <dc:title></dc:title>
      </cc:Work>
    </rdf:RDF>
  </metadata>
  <sodipodi:namedview
     pagecolor="#ffffff"
     bordercolor="#666666"
     borderopacity="1"
     objecttolerance="10"
     gridtolerance="10"
     guidetolerance="10"
     inkscape:pageopacity="0"
     inkscape:pageshadow="2"
     inkscape:window-width="1112"
     inkscape:window-height="480"
     id="namedview21"
     showgrid="false"
     inkscape:zoom="4.9166667"
     inkscape:cx="2.1355932"
     inkscape:cy="24"
     inkscape:window-x="0"
     inkscape:window-y="25"
     inkscape:window-maximized="0"
     inkscape:current-layer="svg19" />
  <defs
     id="defs7">
    <linearGradient
       id="a"
       x1="1.24"
       x2="13.98"
       y1="290.83"
       y2="290.61"
       gradientUnits="userSpaceOnUse"
       gradientTransform="translate(0,-284.3)">
      <stop
         offset="0"
         id="stop2" />
      <stop
         stop-color="#060000"
         stop-opacity="0"
         offset="1"
         id="stop4" />
    </linearGradient>
  </defs>
  <path
     d="m 6.35,0.09 c -1.54,0 -2.78,0.3 -3.69,0.88 A 3.67,3.67 0 0 0 1,4.22 c 0,1.91 1.54,4.47 2.01,5.2 0.54,0.85 1.13,1.61 1.65,2.16 0.68,0.7 1.21,1.03 1.69,1.03 0.48,0 1.01,-0.33 1.69,-1.03 0.52,-0.55 1.11,-1.31 1.65,-2.16 0.47,-0.73 2,-3.29 2,-5.2 0,-1.42 -0.57,-2.55 -1.65,-3.25 A 6.75,6.75 0 0 0 6.35,0.1 Z"
     id="path9"
     inkscape:connector-curvature="0"
     style="fill:#e3dbde" />
  <path
     d="m 7.12,12.36 c 0.24,0 -0.28,0.17 0,0 C 7.4,12.19 7.7,11.94 8.04,11.59 8.56,11.04 9.15,10.27 9.69,9.43 9.92,9.06 10.43,8.23 10.87,7.27 11.09,6.78 11.3,6.26 11.45,5.74 A 4.61,4.61 0 0 0 11.59,3.22 3.73,3.73 0 0 0 10.75,1.58 3.65,3.65 0 0 0 9.3,0.59 C 9.03,0.49 8.74,0.39 8.43,0.31 A 9,9 0 0 0 6.35,0.09 C 6.27,0.09 6.22,0.11 6.14,0.12 L 6.1,0.97 V 2.39 L 6.35,6.18 6.5,8.34 6.35,10.81 Z"
     id="path11"
     style="opacity:0.4;fill:url(#a)"
     inkscape:connector-curvature="0" />
  <path
     d="M 6.35,6.62 4.49,5.37 5.89,3.92 8.17,4.07 8.93,5.02 9.01,6.51 Z"
     id="path13"
     inkscape:connector-curvature="0"
     style="fill:#fbfdfd" />
  <path
     d="m 6.35,0.09 c -0.23,0 -0.4,0.05 -0.62,0.07 L 5.72,0.2 C 5.72,0.28 5.7,0.41 5.67,0.5 5.65,0.58 5.62,0.8 5.61,1 5.59,1.21 5.54,1.47 5.48,1.66 5.42,1.82 5.38,1.98 5.39,2.02 5.43,2.1 5.02,2.37 4.96,2.31 4.89,2.24 4.84,2.25 4.84,2.31 4.84,2.37 4.54,2.55 4.42,2.55 4.38,2.55 4.35,2.58 4.35,2.6 4.35,2.63 4.31,2.64 4.25,2.62 4.17,2.61 4.13,2.62 4.09,2.67 4.06,2.75 4.05,2.75 3.97,2.67 A 0.46,0.46 0 0 1 3.85,2.41 C 3.83,2.31 3.78,2.15 3.74,2.05 3.67,1.9 3.65,1.89 3.65,1.98 c 0,0.06 0.03,0.21 0.07,0.33 0.11,0.36 0,0.61 -0.3,0.66 -0.13,0 -0.2,0 -0.4,-0.13 C 2.56,2.55 2.55,2.54 2.45,1.88 2.41,1.6 2.35,1.52 2.3,1.65 2.27,1.73 2.35,2.42 2.41,2.73 2.47,2.98 2.61,3.29 2.7,3.32 2.73,3.34 2.79,3.42 2.82,3.52 2.84,3.6 2.91,3.73 2.96,3.79 3,3.86 3.05,4.01 3.06,4.12 c 0.02,0.12 0.07,0.36 0.13,0.54 0.07,0.18 0.1,0.41 0.1,0.57 0,0.2 0.03,0.3 0.1,0.37 0.04,0.06 0.1,0.19 0.12,0.28 0.03,0.1 0.1,0.23 0.18,0.3 0.08,0.08 0.14,0.19 0.15,0.32 0.02,0.1 0.07,0.22 0.11,0.28 0.05,0.05 0.1,0.2 0.1,0.35 0.03,0.15 0.1,0.39 0.17,0.54 0.08,0.18 0.12,0.32 0.1,0.4 C 4.3,8.15 4.33,8.2 4.44,8.29 4.63,8.45 4.68,8.44 4.64,8.25 4.6,7.95 4.72,7.87 4.84,8.11 4.97,8.36 5.02,8.53 4.99,8.58 4.98,8.61 5.01,8.76 5.06,8.93 c 0.05,0.16 0.1,0.45 0.11,0.65 0.04,0.59 0.14,1.37 0.24,1.85 0.03,0.11 0.07,0.4 0.09,0.6 0.01,0.15 0.04,0.22 0.06,0.3 l 0.02,0.02 C 5.7,12.42 5.8,12.41 5.92,12.45 6,12.39 6.12,12.33 6.13,12.23 A 4.2,4.2 0 0 0 6.05,11.47 3.9,3.9 0 0 1 5.97,10.83 9.53,9.53 0 0 1 5.77,9.14 c 0,-0.46 0.13,-0.63 0.33,-0.41 0.18,0.2 0.22,0.47 0.28,1.84 0.07,1.67 0.09,1.77 0.13,1.97 0.2,-0.02 0.39,-0.06 0.6,-0.2 0.1,-0.05 0.2,-0.17 0.3,-0.24 v -0.03 c 0.03,-0.92 0.06,-1.39 0.12,-1.65 l 0.06,-0.6 c 0.02,-0.4 0.11,-0.7 0.22,-0.7 0.03,0 0.07,0.05 0.08,0.12 0.04,0.25 0.02,0.9 -0.04,1.25 -0.04,0.2 -0.09,0.78 -0.12,1.27 v 0.07 c 0.1,-0.1 0.2,-0.14 0.3,-0.26 C 8.21,11.39 8.4,11.09 8.58,10.87 8.63,10.42 8.7,9.57 8.74,9.47 8.77,9.39 8.79,9.29 8.78,9.26 8.75,9.19 8.86,8.96 9,8.8 A 0.73,0.73 0 0 0 9.13,8.55 C 9.18,8.36 9.32,8.24 9.46,8.26 c 0.1,0.03 0.12,0 0.15,-0.11 L 9.63,7.9 C 9.63,7.84 9.69,7.68 9.75,7.55 9.81,7.42 9.85,7.3 9.83,7.27 9.82,7.24 9.83,7.16 9.88,7.08 A 3,3 0 0 0 10.04,6.16 C 10.04,6.06 9.97,5.83 9.9,5.63 9.78,5.29 9.77,5.23 9.8,4.91 9.81,4.72 9.84,4.54 9.87,4.51 9.93,4.43 9.87,4.38 9.8,4.44 9.7,4.54 9.64,4.5 9.52,4.27 9.42,4.07 9.4,4.05 9.3,4.07 A 0.22,0.22 0 0 1 9.13,4.06 C 9.09,4.03 9.05,4.02 9.03,4.03 9,4.03 8.93,3.97 8.86,3.87 L 8.66,3.59 A 0.95,0.95 0 0 1 8.53,3.32 C 8.5,3.16 8.45,3.1 8.25,2.97 8.12,2.89 8,2.8 8,2.76 8,2.69 7.93,2.68 7.89,2.75 7.83,2.83 7.77,2.79 7.71,2.63 L 7.64,2.47 7.57,2.62 C 7.5,2.74 7.47,2.77 7.37,2.76 7.23,2.76 6.94,2.51 6.94,2.41 6.94,2.37 6.91,2.3 6.87,2.25 A 0.93,0.93 0 0 1 6.8,1.87 C 6.8,1.7 6.77,1.57 6.74,1.53 A 4.02,4.02 0 0 1 6.6,0.2 V 0.12 C 6.5,0.12 6.44,0.09 6.35,0.09 Z m 0.2,5 a 0.25,0.23 0 0 1 0.03,0 A 0.25,0.23 0 0 1 6.82,5.32 0.25,0.23 0 0 1 6.58,5.55 0.25,0.23 0 0 1 6.32,5.32 0.25,0.23 0 0 1 6.56,5.1 Z m 1.01,0.04 v 0.01 h 0.07 c 0.03,0.03 0.14,0.2 0.25,0.4 L 8.06,5.92 7.93,6.04 C 7.8,6.16 7.36,6.34 7.31,6.29 7.29,6.28 7.31,6.23 7.34,6.19 7.47,6 7.54,5.79 7.54,5.47 Z M 5.51,5.27 c 0.03,0.01 0.03,0.06 0.03,0.13 0,0.08 0.04,0.26 0.09,0.39 0.1,0.28 0.11,0.35 0.02,0.38 A 2.3,2.3 0 0 1 4.82,5.84 C 4.75,5.76 4.75,5.76 4.84,5.64 4.94,5.52 5.1,5.41 5.34,5.32 5.44,5.28 5.49,5.26 5.51,5.27 Z"
     id="path15"
     inkscape:connector-curvature="0"
     style="fill:#1a1a1a" />
  <path
     d="M 1.04,3.9 C 1.04,4 1,4.1 1,4.22 c 0,1.91 1.54,4.47 2.01,5.2 0.54,0.85 1.13,1.61 1.65,2.16 0.68,0.7 1.21,1.03 1.69,1.03 0.48,0 1.01,-0.33 1.69,-1.03 0.52,-0.55 1.11,-1.31 1.65,-2.15 0.47,-0.74 2,-3.3 2,-5.2 C 11.69,4.11 11.67,4.01 11.66,3.9 11.64,4.32 11.58,4.76 11.45,5.2 11.3,5.73 11.09,6.25 10.87,6.73 10.43,7.71 9.92,8.53 9.69,8.9 9.15,9.74 8.56,10.5 8.04,11.05 7.7,11.4 7.4,11.66 7.12,11.83 6.84,12 6.59,12.08 6.35,12.08 6.11,12.08 5.85,12 5.58,11.83 A 4.76,4.76 0 0 1 4.66,11.05 14.42,14.42 0 0 1 3.01,8.9 C 2.78,8.53 2.27,7.7 1.83,6.73 1.61,6.25 1.4,5.73 1.25,5.21 1.12,4.76 1.06,4.32 1.04,3.9 Z"
     id="path17"
     inkscape:connector-curvature="0"
     style="opacity:0.5" />
</svg>
